X:389
T:Eileen Curran
R:reel
N:Played in Gdor or in Ador
D:Mary Bergin: Feadoga Stain 2
D:Kevin Burke: If the Cap Fits
Z:id:hn-reel-389
M:C|
K:Gdor
BAGF DGGB|AFcF dFcA|BAGF DGGA|BABc dgga|
(3bag af gfde|fdcB AFFA|BAGF DGGA|1 BdcA BGGA:|2 BdcA BGG2||
|:g2gf gbag|f2fe fgaf|dggf ~g3a|(3bag af dgga|
(3bag af gfde|fdcB AFFA|BAGF DGGA|1 BdcA BGG2:|2 BdcA BGGA||
K:Ador
cBAG EAAc|BGdG eGdB|cBAG EAAB|cBcd eaab|
(3c'ba bg agef|gedc BGGB|cBAG EAAB|1 cedB cAAB:|2 cedB cAA2||
|:a2ag ac'ba|g2gf gabg|eaag ~a3b|(3c'ba bg eaab|
(3c'ba bg agef|gedc BGGB|cBAG EAAB|1 cedB cAA2:|2 cedB cAAB||
